X: 27164
T: Miss McLeod's
R: reel
M: 4/4
K: Gmajor
G2BG dGBG|B2BA BcBA|G2BG dGBG|A2AG AcBA|
G2BG dGBG|B2BA B2 d2|e3f edef|gedB AcBA:|
G2gf edeg|B2BA BcBA|G2gf edeg|a2ab agef|
g2gf edeg|B2BA B2 d2|e3f edef|gedB AcBA:|

